X:1
T:Filli mirando il Cielo
T:Gio.Felice Sancez
T:Source : Cantade---Libro II prima parte---B.Magni---1633 Editor : André Vierendeels (27/08/18) Notes : Original clefs : C1, F4 Original note values have been halved in 3-beat mesures Figures in BC are notated in original print
T:Filli mirando il Cielo
T:Madrigale
T:©
T:©
T:©
T:©
T:©
T:©
T:©
T:©
T:©
T:©
T:©
C:Gio.Felice Sancez
Z:©
%%score 1 { 2 | 3 }
L:1/8
Q:1/4=130
M:4/4
K:F
V:1 treble nm="Soprano" snm="S"
V:2 treble nm="MusicXML Part"
V:3 bass 
V:1
 z4 B4- | B4 F4 | z2 d2 B2 F2 | f8- | f4 e4 | z2 ^c2 d4- | d2 _e2 c4- | c4 =B4 | z2 d2 e4- | %9
w: Fil-|* li|mi- ran- do'il|Cie-|* lo|di- cea|_ do- glio-|* sa,|di- cea|
 e2 f2 d4- | d4 ^c4 | z2 A2 c2 c2- | c2 B2 BBAG | G6 G2- | G2 GG G4 | F8 | z2 A2 dccB | B4 B2 _e2 | %18
w: _ do- glio-|* sa|e'i tan- to|_ em- pia di cal- de|per- le'un|_ bian- co ve-|lo,|em- pia di cal- de|per le un|
 c6 c2 | c8 | B8 |[M:3/2] z4 F8- | F4 G6 A2 | B4 c4 z4 | z4 z2 c4 d2 | _e4 d4 z4 | _d4 c8 | %27
w: bian- co|ve-|lo,|io|_ mi dis-|sti- lo,|mi dis-|sti- lo|in pian-|
 B4 d2 c2 d2 _e2 | c2 B2 c2 d2 c4 | z4 B4 A4- | A4 A8 | _A12 | G4 G8 | F4 A6 B2 | G4 G4 A2 A2 | %35
w: to d'a- * * *|mor _ _ _ _|lan- *|* guis-||co'e mo-|ro me ri-|tro- vo, me ri-|
 A6 G2 F4 | E4 e6 f2 | g4 ^c4 f4 | f4 e8 | d12 | z4 d2 _e2 f4 | B4 c4 d4 | d4 c8 | B4 d8- | d4 c8 | %45
w: tro- vo pie-|tà, O _|_ Ciel, O|stel- *|le,|O _ _|Ciel, _ o|stel- *|le ne-|* ri,|
 B4 A6 A2 | G4 G2 A2 B2 c2 | F4 F4 z4 | z4 B4 A4 | A4 G8 | F12 | z4 d2 e2 f2 g2 | B4 c4 d4 | %53
w: tro- vo pie-|tà, O _ _ _|Cie- lo,|O _|stel- *|le,|O _ _ _|Ciel, _ O|
 _e2 d2 c8 | B4 d6 e2 | f4 f4 f4 | _e12 | d12 | c4 _e2 d2 c2 B2 | B4 A8 | G6 d2 B2 G2 | c4 A4 z4 | %62
w: stel- * *|le, io mi|son gio- vi-|net-|ta|e'l crin _ ho _|d'o- *|ro, son gio- vi-|net- ta,|
 z4 z2 g2 _e2 c2 | f4 d4 z4 | z4 z2 _e2 c2 A2 | d4 B4 defg | _e4 cdef d4 | c4 c8 | B12 | %69
w: son gio- vi-|net- ta,|son gio- vi-|net- ta, e'l _ _ _|crin _ _ _ _ _|ho d'o-|ro,|
 z4 F2 G2 A2 F2 | B2 A2 B2 c2 d2 e2 | f4 _e2 d2 f2 e2 | d8 d4 | c8 c4 | z4 B2 A2 B2 c2 | A4 G4 F4 | %76
w: e _ _ _|_ _ _ _ _ _|* co- * lo- *|ri- t'e|bel- le,|sem- * * *|* bran le|
 E8 E4 | D4 F2 G2 A2 B2 | c2 CD E2 F2 G2 A2 | B2 GA B2 c2 d2 e2 | f4 F4 G4 | A4 G8 | %82
w: guan- ce|mie ro- * * *|||* se no-|vel- *|
 F4 A2 G2 A2 B2 | c4 c4 B4 | A8 A4 | G4 =B2 A2 B2 c2 | d4 d4 c4 | =B8 B4 | A12 | z4 c2 B2 A2 G2 | %90
w: le, sem- * * *|* bran le|guan- ce|mie, sem- * * *|* bran le|guan- ce|mie|ro- * * *|
 F4 G4 A4 | G12 | F12 | z4 f2 _e2 d2 c2 | B4 c4 d4 | c12 | B12 |:[M:4/4] z4 f4- | f4 _e3 e | %99
w: * se no-|vel-|le,|ro- * * *|* se no-|vel-|le,|Ahi|_ qual se-|
 _e2 d2 d3 c- | ^F8 | ^fe e2 dccd | B3 A/B/ c4 |[M:3/2] A4 A6 B2 | c4 B4 A4 | G12 | F4 c4 d4 | %107
w: ra'il tor- men- to?|_|Qual sa- rà, qual sa- rà'il tor-|men- * * *|to? Quan- do'ha-|vro d'o- ro'il|vol-|to, e'l crin,|
 z4 d4 e4 | z4 e4 f4- | f4 e6 f2 | g4 f8 | f4 e8 | d4 A6 B2 | c4 c4 B4 | A12 | G4 d4 e4 | %116
w: e'l crin,|e'l crin|_ _ _|* d'ar-|gen- *|to, quan- do|ha- vro d'o-|ro'il|vol- to'e'l crin,|
 z4 e4 f4- | f4 f4 e4 | d12 | c4 G6 A2 | B4 B4 A4 | G12 | F4 c6 d2 | _e4 e4 d4 | c12 | B4 F4 G4 | %126
w: e'l crin|_ d'ar- *|gen-|to, quan- d'ha-|vro d'o- ro'il|vol-|to, quan- d'ha-|vro d'o- ro'il|vol-|to e'l crin,|
 z4 G4 A4- | A2 G2 F2 G2 A2 B2 | c4 B8 | B4 A8 | G4 d4 e4 | z4 e4 f4 |[M:4/4] z2 f2 g4 | %133
w: e'l crin|_ _ _ _ _ _|* d'ar-|gen- *|to, e'l crin,|e'l crin,|e'l crin|
 _ef/e/ de/d/ cd/c/ d/e/f/B/ | c8 | B8 :| %136
w: d'ar- * * * * * * * * * * * *|gen-|to?|
V:2
 z8 | z8 | z8 | z8 | z8 |"^BC" z8 | z8 | z8 | z8 | z8 |"^6\n4" z8 | z8 |"^5\n3" z8 | z8 | z8 | %15
"^3" z8 | z8 | z8 | z8 | z8 | z8 |[M:3/2] z12 | z12 | z12 | z12 | z12 | z12 | z12 | z12 | z12 | %30
 z12 | z12 | z12 | z12 | z12 | z12 | z12 | z12 | z12 | z12 | z12 | z12 | z12 | z12 | z12 | z12 | %46
 z12 | z12 | z12 | z12 | z12 | z12 | z12 | z12 | z12 | z12 | z12 | z12 | z12 | z12 | z12 | z12 | %62
 z12 | z12 | z12 | z12 | z12 | z12 | z12 | z12 | z12 | z12 | z12 | z12 | z12 | z12 | z12 | z12 | %78
 z12 | z12 | z12 | z12 | z12 | z12 | z12 | z12 | z12 | z12 | z12 | z12 | z12 | z12 | z12 | z12 | %94
 z12 | z12 | z12 |:[M:4/4] z8 | z8 | z8 | z8 | z8 | z8 |[M:3/2] z12 | z12 | z12 | z12 | z12 | z12 | %109
 z12 | z12 | z12 | z12 | z12 | z12 | z12 | z12 | z12 | z12 | z12 | z12 | z12 |"^6" z12 |"^6" z12 | %124
 z12 | z12 | z12 | z12 | z12 | z12 | z12 | z12 |[M:4/4]"^6" z8 | z8 | z8 |"^6" z8 :| %136
V:3
 B,,8- | B,,8 | B,,8- | B,,2 C,2 D,4 | A,,8 | A,4 ^F,4 |"^4\n3" G,6 ^F,2 | %7
"^b 6\n4""^-natural3" G,4 G,,4 | G,,4 z2 G,2 | A,4 A,2 G,2 |"^4\n2""^5\n3" A,4 A,,4 | F,,8 | %12
 G,,4 A,,2 B,,2 | C,6 A,,2 | B,,4 C,4 | F,,8 | F,4 ^F,4 | G,4 _E,4 | F,4 _E,4 | F,8 | B,,8 | %21
[M:3/2] B,12 | A,12 | G,12 | F,12 | _E,12 | F,12 | B,,12 | F,12 | G,,12 | A,,12 | B,,12 | C,12 | %33
 F,,12 | C,12 | D,12 |"^#" A,,12 |"^-natural" G,,12 | A,,12 | D,12 | B,,12 | _E,12 | F,12 | B,,12 | %44
 C,12 | D,12 | G,,12 | A,,12 | B,,12 | C,12 | F,12 | D,12 | _E,12 | F,12 | B,12 | A,12 | G,12 | %57
 F,12 | _E,12 | D,12 | G,12 | F,12 | _E,12 | D,12 | C,12 | B,,12 | _E,12 | F,12 | B,12 | A,12 | %70
 G,12 | F,12 | G,12 | C,12 | G,,12 | D,12 | A,,12 | D,12 | C,12 | B,,12 | A,,12 | C,12 | F,12 | %83
 C,12 | D,12 | G,,12 | D,12 | E,12 | A,,12 | F,,12 | B,,12 | C,12 | F,12 | D,12 | _E,12 | F,12 | %96
 B,,12 |:[M:4/4] B,8 | A,4 G,4 | F,4 _E,4 | D,8 | D2 C2 B,2 A,2 |"^7 6" G,8 |[M:3/2] F,12 | A,,12 | %105
 C,12 |"^6" F,12 |"^6" G,12 |"^6" A,12 | B,12 | G,12 | A,12 | D,12 | C,12 | D,12 | G,12 | A,12 | %117
 F,12 | G,12 | C,12 | B,,12 | C,12 | F,12 | _E,12 | F,12 |"^6" B,,12 | C,12 | D,12 | C,12 | D,12 | %130
 G,12 |"^6" A,12 |[M:4/4] B,4 _E,4 | _E,4 F,2 D,2 | F,8 | B,,8 :| %136

